X: 25080
T: Maids Of Kintail, The
R: jig
M: 6/8
K: Amixolydian
|:B/c/d|eee edB|dBA A2g|dGd dc/B/A|BAG G2 g|
fed efg|aAa e2a|g2 e dB/c/d|eAA A:|
|:e/f/g|aaa efg|aaa e2 f|ggg def|ggg d2 g|
fed efg|aAa e2a|g2 e dB/c/d|eAA A:|

